packages/heroicons/src/prism/graph-pie.svg

<!-- Generated by IcoMoon.io -->
<svg version="1.1" xmlns="http://www.w3.org/2000/svg" width="16" height="16" viewBox="0 0 16 16">
<title>graph-pie</title>
<path fill="#4a4a4a" d="M7 9v-8.938c-3.946 0.492-7 3.858-7 7.938 0 4.418 3.582 8 8 8 4.080 0 7.446-3.054 7.938-7h-8.938zM12.65 13.233c-1.281 1.14-2.933 1.767-4.65 1.767-0.945 0-1.862-0.185-2.724-0.55-0.833-0.352-1.582-0.857-2.225-1.501s-1.148-1.392-1.501-2.225c-0.365-0.862-0.55-1.779-0.55-2.724 0-1.717 0.628-3.368 1.767-4.65 0.873-0.982 1.994-1.691 3.233-2.060v8.71h8.71c-0.369 1.238-1.079 2.36-2.060 3.233zM8 0c4.418 0 8 3.582 8 8h-8v-8z"></path>
</svg>

<svg xmlns="http://www.w3.org/2000/svg" aria-hidden="true" fill="currentColor" viewBox="0 0 16 16">
  <path d="M7 9V.062A8.001 8.001 0 1015.938 9H7zm5.65 4.233A6.987 6.987 0 018 15a6.959 6.959 0 01-4.949-2.051 7.003 7.003 0 01-1.501-2.225A6.95 6.95 0 011 8a6.998 6.998 0 015-6.71V10h8.71a7.01 7.01 0 01-2.06 3.233zM8 0a8 8 0 018 8H8V0z"/>
</svg>
